X: 2
T: The Liffey Banks
R: reel
M: 4/4
L: 1/8
K: Gmaj
|:G3F GBdB|cBcd g2 dc|B2 GB ABGE|DEGB AE3|
|GEDE GBdB|cBcd g2 dc|B2 GB ABGE|1 DEGB A2 GF:|2 DEGB AG G2||
|:g3e d2 (3Bcd|gabg aged|g3e d2 (3Bcd|gabg a2 gf|
|g3e d2 (3Bcd|gabg agef|gabg efge|dedc BcdB:||


Tune 502	Setting 26072

